X: 27
M: 6/8
L: 1/8
K: Bb
|: f |\
fdB fg_a | _a3 g2g | g=ec gab | b3 a2g |\
fbf dfd | ege cde | dcB FBA | B3 B2 :|




